X: 13297
T: Flags Of Dublin, The
R: reel
M: 4/4
K: Dmajor
ADFA BEdB|ADFA BGGG|ADFA Bcdg|fdec d3B|
AD 3.F/.G/A BedB|AD .F/.G/A BGGG|AD 3.F/.G/A Bcdg|fdBc d3A|
dcdf e3g|fdec dcBA|dddf e3g|fdBA d3A|
dcdf e3g|fdec dcBA|GBBA Bcde|fdec d2cB|

